components/ui-node-icon/src/crossJoin/crossJoin.medium.svg

<svg width="24" height="24" viewBox="0 0 24 24" fill="none" xmlns="http://www.w3.org/2000/svg">
  <path fill-rule="evenodd" clip-rule="evenodd" d="M5 20C7.47791 20 9.53482 17.116 9.93107 13.3315L7.03847 14.444C6.05597 14.8219 5 14.0966 5 13.044V10.956C5 9.90336 6.05596 9.17813 7.03847 9.55601L9.93107 10.6685C9.53482 6.884 7.47791 4 5 4C2.23858 4 0 7.58172 0 12C0 16.4183 2.23858 20 5 20ZM10 12C10 11.9216 9.9993 11.8435 9.9979 11.7657L6.67949 10.4894C6.35199 10.3634 6 10.6051 6 10.956V13.044C6 13.3949 6.35199 13.6366 6.67949 13.5106L9.9979 12.2343C9.9993 12.1565 10 12.0784 10 12ZM19 20C16.5221 20 14.4652 17.116 14.0689 13.3315L16.9615 14.444C17.944 14.8219 19 14.0966 19 13.044V10.956C19 9.90336 17.944 9.17813 16.9615 9.55601L14.0689 10.6685C14.4652 6.88401 16.5221 4 19 4C21.7614 4 24 7.58172 24 12C24 16.4183 21.7614 20 19 20ZM14 12C14 12.0784 14.0007 12.1565 14.0021 12.2343L17.3205 13.5106C17.648 13.6366 18 13.3949 18 13.044V10.956C18 10.6051 17.648 10.3634 17.3205 10.4894L14.0021 11.7657C14.0007 11.8435 14 11.9216 14 12ZM12 12.5357L14 13.3049V12.2335L13.3928 12L14 11.7665V10.6951L12 11.4643L10 10.6951V11.7665L10.6072 12L10 12.2335V13.3049L12 12.5357Z" fill="var(--tbl--colors--icons--transformation--primary)"/>
</svg>

<svg xmlns="http://www.w3.org/2000/svg" width="24" height="24" fill="none" viewBox="0 0 24 24">
  <path fill="var(--tbl--colors--icons--transformation--primary)" fill-rule="evenodd" d="M5 20c2.478 0 4.535-2.884 4.931-6.668l-2.893 1.112A1.5 1.5 0 0 1 5 13.044v-2.088a1.5 1.5 0 0 1 2.038-1.4l2.893 1.113C9.535 6.883 7.478 4 5 4c-2.761 0-5 3.582-5 8s2.239 8 5 8Zm5-8c0-.078 0-.156-.002-.234l-3.319-1.277a.5.5 0 0 0-.679.467v2.088a.5.5 0 0 0 .68.467l3.318-1.277L10 12Zm9 8c-2.478 0-4.535-2.884-4.931-6.668l2.893 1.112a1.5 1.5 0 0 0 2.038-1.4v-2.088a1.5 1.5 0 0 0-2.038-1.4l-2.893 1.113C14.465 6.883 16.522 4 19 4c2.761 0 5 3.582 5 8s-2.239 8-5 8Zm-5-8c0 .078 0 .156.002.234l3.318 1.277a.5.5 0 0 0 .68-.467v-2.088a.5.5 0 0 0-.68-.467l-3.318 1.277L14 12Zm-2 .536 2 .769v-1.072L13.393 12l.607-.233v-1.072l-2 .77-2-.77v1.072l.607.233-.607.233v1.072l2-.77Z" clip-rule="evenodd"/>
</svg>
